assets/Woman red hair/Light/Flat/woman_red_hair_flat_light.svg

<svg width="32" height="32" viewBox="0 0 32 32" fill="none" xmlns="http://www.w3.org/2000/svg">
<path d="M30 17.8679C30 18.8113 29.7925 19.717 29.3962 20.5283C29.2642 20.7925 29.2642 21.1132 29.3962 21.3774C29.7736 22.1698 30 23.0566 30 24C30 27.3208 27.3208 30 24 30H8C4.67924 30 2 27.3208 2 24C2 23.0566 2.22641 22.1698 2.60377 21.3774C2.73585 21.1132 2.73585 20.7925 2.60377 20.5283C2.22641 19.717 2 18.8302 2 17.8679C2 16.6067 2.37561 15.4582 3.0144 14.4785L3.01867 14.4717C3.66018 13.4906 3.99981 12.3396 3.99981 11.1698V11.1509C3.99981 7.80772 6.66921 5.08614 9.99222 5.00201C10.0449 5.00067 10.0977 5 10.1507 5C10.4904 5 10.8111 4.83019 10.9998 4.56604C12.113 3.01887 13.9432 2 15.9998 2C18.0564 2 19.8868 3.01887 21 4.56604C21.1887 4.84906 21.5094 5 21.8491 5C25.2453 5 28 7.75472 28 11.1509V11.1698C28 12.3396 28.3396 13.4906 28.9811 14.4717L28.9849 14.4775C29.1907 14.7777 29.3593 15.0965 29.5092 15.434H29.4993C29.8207 16.1792 30 16.9966 30 17.8679Z" fill="#E96A3C"/>
<path d="M28 17.9C28 19.5569 26.6569 20.9 25 20.9C23.3431 20.9 22 19.5569 22 17.9C22 16.2432 23.3431 14.9 25 14.9C26.6569 14.9 28 16.2432 28 17.9Z" fill="#F4C6AD"/>
<path d="M10.3 18C10.3 19.6569 8.95684 21 7.29999 21C5.64313 21 4.29999 19.6569 4.29999 18C4.29999 16.3432 5.64313 15 7.29999 15C8.95684 15 10.3 16.3432 10.3 18Z" fill="#F4C6AD"/>
<path d="M6.51528 15.5459H6.53824L6.51912 15.0513L6.5 14.4807C6.53824 12.7116 7.57068 12.0268 8.01042 11.7985C8.0391 11.789 8.07256 11.7747 8.10602 11.7604C8.13947 11.7462 8.17293 11.7319 8.20161 11.7224C9.19581 11.2658 9.99882 10.4669 10.4194 9.42066L10.5724 9.05923C10.7253 8.6978 11.2033 8.64073 11.4328 8.96411C12.7711 10.9234 15.0081 12.0838 17.3788 12.0838H23.3823C23.718 12.0838 25.3999 12.2467 25.5 14.5676L25.2786 20.0182C25.0487 25.2432 20.9684 28.7517 15.9878 28.7517C11.0071 28.7517 6.92683 25.2432 6.69695 20.0182L6.51528 15.5459Z" fill="#FFD7C2"/>
<path d="M15.2872 17.5266L14.2963 20.6961C14.0941 21.348 14.5794 22 15.2669 22H16.7331C17.4206 22 17.9059 21.338 17.7037 20.6961L16.7128 17.5266C16.5005 16.8245 15.5096 16.8245 15.2872 17.5266Z" fill="#E5AF93"/>
<path d="M16 23.3954C15.0538 23.3954 14.1644 23.1727 13.417 22.7831C13.1615 22.6532 12.8871 22.9408 13.048 23.1727C13.6724 24.1191 14.7605 24.75 16 24.75C17.2395 24.75 18.3276 24.1191 18.952 23.1727C19.1129 22.9315 18.8385 22.6532 18.583 22.7831C17.8356 23.1727 16.9556 23.3954 16 23.3954Z" fill="#990838"/>
<path d="M11 15.4C12 15.4 13.025 16.2 13.525 17C12.9262 17.1843 12.3698 17.3261 11.8266 17.4645C11.1904 17.6267 10.5723 17.7843 9.92499 18L8.92497 17.3C8.52497 17 8.42498 16.5 9.02497 16.1C9.62497 15.6 10.3 15.4 11 15.4Z" fill="black"/>
<path d="M21.2 15.4C20.2 15.4 19.175 16.2 18.675 17C19.2738 17.1843 19.8301 17.3261 20.3734 17.4645C21.0095 17.6267 21.6277 17.7843 22.275 18L23.275 17.3C23.675 17 23.775 16.5 23.175 16.1C22.575 15.6 21.9 15.4 21.2 15.4Z" fill="black"/>
<path d="M9.01481 17.3673C9.30113 16.2403 10.3279 15.4 11.5423 15.4C12.8061 15.4 13.8625 16.2996 14.0994 17.4958C14.1488 17.7628 13.9415 18 13.6749 18H9.51834C9.18266 18 8.93583 17.6936 9.01481 17.3673Z" fill="white"/>
<path d="M22.9852 17.3673C22.6989 16.2403 21.6721 15.4 20.4577 15.4C19.1841 15.4 18.1375 16.2996 17.9006 17.4958C17.8512 17.7628 18.0585 18 18.3251 18H22.4817C22.8173 18 23.0642 17.6936 22.9852 17.3673Z" fill="white"/>
<path d="M10.2588 17.5568C10.2588 16.6311 11.0091 15.8925 11.9273 15.8925C12.8455 15.8925 13.586 16.6311 13.586 17.5568C13.586 17.7144 13.5663 17.8622 13.5268 18H10.318C10.2785 17.8523 10.2588 17.7144 10.2588 17.5568Z" fill="#7D4533"/>
<path d="M21.7412 17.5568C21.7412 16.6311 20.9908 15.8925 20.0726 15.8925C19.1545 15.8925 18.4041 16.6311 18.414 17.5568C18.414 17.7144 18.4337 17.8622 18.4732 18H21.682C21.7214 17.8523 21.7412 17.7144 21.7412 17.5568Z" fill="#7D4533"/>
<path d="M11.9274 16.6113C12.4506 16.6113 12.8752 17.0348 12.8752 17.5568C12.8752 17.7144 12.8357 17.8621 12.7666 18H11.0882C11.019 17.8621 10.9796 17.7144 10.9796 17.5568C10.9796 17.0348 11.4041 16.6113 11.9274 16.6113Z" fill="black"/>
<path d="M20.0627 16.6113C19.5395 16.6113 19.1149 17.0348 19.1149 17.5568C19.1149 17.7144 19.1544 17.8621 19.2235 18H20.902C20.9711 17.8621 21.0106 17.7144 21.0106 17.5568C21.0106 17.0348 20.586 16.6113 20.0627 16.6113Z" fill="black"/>
<path d="M11.6509 16.92C11.6509 17.0857 11.5183 17.22 11.3547 17.22C11.1911 17.22 11.0585 17.0857 11.0585 16.92C11.0585 16.7543 11.1911 16.62 11.3547 16.62C11.5183 16.62 11.6509 16.7543 11.6509 16.92Z" fill="white"/>
<path d="M19.8456 16.92C19.8456 17.0857 19.7129 17.22 19.5494 17.22C19.3858 17.22 19.2532 17.0857 19.2532 16.92C19.2532 16.7543 19.3858 16.62 19.5494 16.62C19.7129 16.62 19.8456 16.7543 19.8456 16.92Z" fill="white"/>
<path d="M9.76551 14.5853L9.75732 14.59C9.52057 14.7319 9.21335 14.6552 9.07133 14.4185C8.92926 14.1817 9.00604 13.8746 9.24283 13.7325L9.24419 13.7317L9.24611 13.7305L9.25162 13.7273L9.26917 13.7171C9.28373 13.7088 9.304 13.6974 9.32965 13.6835C9.38091 13.6558 9.45385 13.6178 9.54588 13.5739C9.72959 13.4864 9.99145 13.3742 10.3106 13.2724C10.9442 13.0702 11.8304 12.9 12.787 13.0688C13.0589 13.1168 13.2405 13.3762 13.1925 13.6481C13.1445 13.9201 12.8851 14.1016 12.6132 14.0536C11.8698 13.9224 11.1559 14.0523 10.6146 14.2251C10.3462 14.3107 10.1268 14.4048 9.97614 14.4767C9.90099 14.5125 9.84346 14.5425 9.80605 14.5628C9.78736 14.5729 9.77374 14.5806 9.76551 14.5853Z" fill="#212121"/>
<path d="M22.957 13.7323L22.956 13.7317L22.954 13.7305L22.9485 13.7273L22.931 13.7171C22.9164 13.7088 22.8962 13.6974 22.8705 13.6835C22.8192 13.6558 22.7463 13.6178 22.6543 13.5739C22.4706 13.4864 22.2087 13.3742 21.8896 13.2724C21.2559 13.0702 20.3698 12.9 19.4132 13.0688C19.1412 13.1168 18.9597 13.3762 19.0077 13.6481C19.0557 13.9201 19.315 14.1016 19.587 14.0536C20.3304 13.9224 21.0442 14.0523 21.5856 14.2251C21.8539 14.3107 22.0733 14.4048 22.224 14.4767C22.2992 14.5125 22.3567 14.5425 22.3941 14.5628C22.4128 14.5729 22.4264 14.5806 22.4346 14.5853L22.4429 14.59L22.4438 14.5906C22.6805 14.7318 22.9869 14.655 23.1288 14.4185C23.2709 14.1817 23.1938 13.8744 22.957 13.7323Z" fill="#212121"/>
</svg>

<svg xmlns="http://www.w3.org/2000/svg" width="32" height="32" fill="none"><path fill="#E96A3C" d="M30 17.868c0 .943-.207 1.849-.604 2.66a.96.96 0 0 0 0 .85c.378.792.604 1.679.604 2.622 0 3.32-2.68 6-6 6H8c-3.32 0-6-2.68-6-6 0-.943.226-1.83.604-2.623a.96.96 0 0 0 0-.849A6.253 6.253 0 0 1 2 17.868c0-1.261.376-2.41 1.014-3.39l.005-.006a6.04 6.04 0 0 0 .98-3.302v-.02A6.152 6.152 0 0 1 10.152 5c.34 0 .66-.17.849-.434A6.163 6.163 0 0 1 16 2a6.163 6.163 0 0 1 5 2.566c.189.283.51.434.85.434A6.152 6.152 0 0 1 28 11.15v.02c0 1.17.34 2.32.981 3.302l.004.005c.206.3.374.62.524.957h-.01c.322.745.501 1.563.501 2.434Z"/><path fill="#F4C6AD" d="M28 17.9a3 3 0 1 1-6 0 3 3 0 0 1 6 0ZM10.3 18a3 3 0 1 1-6 0 3 3 0 0 1 6 0Z"/><path fill="#FFD7C2" d="M6.515 15.546h.023l-.019-.495-.019-.57c.038-1.77 1.07-2.454 1.51-2.682.03-.01.063-.024.096-.039.033-.014.067-.028.096-.038a4.296 4.296 0 0 0 2.217-2.301l.153-.362a.492.492 0 0 1 .86-.095 7.201 7.201 0 0 0 5.947 3.12h6.003c.336 0 2.018.163 2.118 2.484l-.221 5.45c-.23 5.225-4.31 8.734-9.291 8.734-4.98 0-9.061-3.509-9.291-8.734l-.182-4.472Z"/><path fill="#E5AF93" d="m15.287 17.527-.99 3.17a1.005 1.005 0 0 0 .97 1.303h1.466c.688 0 1.173-.662.97-1.304l-.99-3.17c-.213-.701-1.203-.701-1.426 0Z"/><path fill="#990838" d="M16 23.395a5.603 5.603 0 0 1-2.583-.612c-.255-.13-.53.158-.369.39A3.53 3.53 0 0 0 16 24.75a3.53 3.53 0 0 0 2.952-1.577c.16-.241-.114-.52-.369-.39a5.574 5.574 0 0 1-2.583.612Z"/><path fill="#000" d="M11 15.4c1 0 2.025.8 2.525 1.6-.599.184-1.155.326-1.698.465-.637.162-1.255.32-1.902.535l-1-.7c-.4-.3-.5-.8.1-1.2.6-.5 1.275-.7 1.975-.7ZM21.2 15.4c-1 0-2.025.8-2.525 1.6.599.184 1.155.326 1.698.465.636.162 1.255.32 1.902.535l1-.7c.4-.3.5-.8-.1-1.2-.6-.5-1.275-.7-1.975-.7Z"/><path fill="#fff" d="M9.015 17.367a2.607 2.607 0 0 1 5.085.128.428.428 0 0 1-.425.505H9.518a.512.512 0 0 1-.503-.633ZM22.985 17.367a2.617 2.617 0 0 0-2.527-1.967 2.6 2.6 0 0 0-2.557 2.096.428.428 0 0 0 .424.504h4.157a.512.512 0 0 0 .503-.633Z"/><path fill="#7D4533" d="M10.259 17.557a1.664 1.664 0 1 1 3.268.443h-3.209a1.655 1.655 0 0 1-.06-.443ZM21.741 17.557c0-.926-.75-1.664-1.668-1.664a1.65 1.65 0 0 0-1.659 1.664c0 .157.02.305.06.443h3.208c.04-.148.06-.286.06-.443Z"/><path fill="#000" d="M11.927 16.611a.947.947 0 0 1 .84 1.389h-1.679a.947.947 0 0 1 .84-1.389ZM20.063 16.611a.947.947 0 0 0-.84 1.389h1.679a.947.947 0 0 0-.84-1.389Z"/><path fill="#fff" d="M11.65 16.92c0 .166-.132.3-.295.3a.298.298 0 0 1-.296-.3c0-.166.132-.3.296-.3.163 0 .296.134.296.3ZM19.846 16.92c0 .166-.133.3-.297.3a.298.298 0 0 1-.296-.3c0-.166.133-.3.296-.3.164 0 .297.134.297.3Z"/><path fill="#212121" d="m9.766 14.585-.009.005a.5.5 0 0 1-.514-.857l.001-.001.002-.002.006-.003.017-.01.06-.034a6.11 6.11 0 0 1 .981-.411c.634-.202 1.52-.372 2.477-.203a.5.5 0 0 1-.174.985c-.743-.132-1.457-.002-1.998.171a5.085 5.085 0 0 0-.85.36ZM22.957 13.732h-.001l-.002-.002-.006-.003-.017-.01a4.864 4.864 0 0 0-.277-.143 6.112 6.112 0 0 0-.764-.302c-.634-.202-1.52-.372-2.477-.203a.5.5 0 1 0 .174.985c.743-.132 1.457-.002 1.999.171a5.092 5.092 0 0 1 .849.36l.008.005a.5.5 0 0 0 .514-.858Z"/></svg>
